src/resources/svg/your-positions-active.svg

<svg fill="none" height="24" viewBox="0 0 24 24" width="24" xmlns="http://www.w3.org/2000/svg" xmlns:xlink="http://www.w3.org/1999/xlink"><linearGradient id="a" gradientUnits="userSpaceOnUse" x1="2" x2="22" y1="11.7959" y2="11.7959"><stop offset="0" stop-color="#ff9574"/><stop offset="1" stop-color="#ff4c8c"/></linearGradient><path d="m7 2.75h10c2.3472 0 4.25 1.90279 4.25 4.25v10c0 2.3472-1.9028 4.25-4.25 4.25h-10c-2.34721 0-4.25-1.9028-4.25-4.25v-10c0-2.34721 1.90279-4.25 4.25-4.25z" stroke="url(#a)" stroke-width="1.5"/><path d="m18.6881 8.87061c-.345.86903-.8673 1.65659-1.5337 2.31259-.6663.656-1.4619 1.166-2.3363 1.4974-.9548.2621-1.9617.269-2.92.02-.724-.1866-1.4827-.1935-2.20996-.02-.69282.2823-1.3202.7041-1.84316 1.2391s-.93034 1.1719-1.19684 1.8709c-.06203.1272-.15885.2341-.27922.3085-.12037.0743-.25936.113-.40083.1115-.11446-.0027-.227-.03-.33-.08-.17744-.0878-.31286-.2423-.37659-.4298-.06372-.1874-.05057-.3924.03659-.5702 1.04-2.1 2.37-3.41 3.95-3.88.95551-.2569 1.96101-.2638 2.92001-.02.7227.1967 1.4839.2036 2.21.02.6749-.2795 1.2861-.6931 1.7966-1.2156.5105-.52252.9097-1.14316 1.1734-1.8244.0878-.17745.2423-.31285.4297-.37658.1875-.06373.3925-.05058.5703.03659.0886.04259.1679.10243.2332.17602.0652.0736.1151.15945.1468.25257.0316.09311.0444.19162.0376.28973-.0069.09811-.0333.19387-.0776.28168z" fill="#fff"/></svg>

<svg width="24" height="24" viewBox="0 0 24 24" fill="none" xmlns="http://www.w3.org/2000/svg">
<path d="M7 2.75H17C19.3472 2.75 21.25 4.65279 21.25 7V17C21.25 19.3472 19.3472 21.25 17 21.25H7C4.65279 21.25 2.75 19.3472 2.75 17V7C2.75 4.65279 4.65279 2.75 7 2.75Z" stroke="url(#paint0_linear_112_15722)" stroke-width="1.5"/>
<path d="M18.6879 8.87036C18.3428 9.7394 17.8205 10.527 17.1542 11.183C16.4879 11.839 15.6922 12.3489 14.8179 12.6804C13.8631 12.9425 12.8562 12.9494 11.8979 12.7004C11.1739 12.5137 10.4152 12.5069 9.6879 12.6804C8.99507 12.9627 8.3677 13.3845 7.84473 13.9195C7.32177 14.4545 6.91439 15.0913 6.6479 15.7904C6.58586 15.9175 6.48905 16.0245 6.36867 16.0988C6.2483 16.1732 6.10932 16.2118 5.96785 16.2104C5.85339 16.2077 5.74084 16.1804 5.63785 16.1304C5.46041 16.0426 5.32499 15.888 5.26126 15.7006C5.19753 15.5132 5.21069 15.3081 5.29784 15.1304C6.33784 13.0304 7.66785 11.7204 9.24785 11.2504C10.2034 10.9934 11.2089 10.9865 12.1678 11.2304C12.8905 11.4271 13.6517 11.434 14.3778 11.2504C15.0528 10.9708 15.6639 10.5573 16.1744 10.0348C16.6849 9.51224 17.0841 8.89159 17.3478 8.21036C17.4356 8.03291 17.5902 7.8975 17.7776 7.83377C17.965 7.77004 18.1701 7.78319 18.3478 7.87036C18.4365 7.91296 18.5158 7.9728 18.581 8.04639C18.6463 8.11998 18.6962 8.20584 18.7278 8.29895C18.7595 8.39207 18.7723 8.49057 18.7654 8.58869C18.7586 8.6868 18.7322 8.78256 18.6879 8.87036Z" fill="white"/>
<defs>
<linearGradient id="paint0_linear_112_15722" x1="2" y1="11.7959" x2="22" y2="11.7959" gradientUnits="userSpaceOnUse">
<stop stop-color="#FF9574"/>
<stop offset="1" stop-color="#FF4C8C"/>
</linearGradient>
</defs>
</svg>
